X:1
T:Lualåt
T:Lualåt
T:The Mountaineer's Song Moods , Op. 73, No. 7 
T:Edvard Grieg (1843-1907)
T:by Mutopia-2009/02/11-1628 - public domain
T:by Mutopia-2009/02/11-1628 - public domain
T:by Mutopia-2009/02/11-1628 - public domain
C:Edvard Grieg (1843-1907)
Z:by Mutopia-2009/02/11-1628 - public domain
%%score { ( 1 4 ) | ( 2 3 ) }
L:1/8
Q:1/4=120
M:2/2
K:Bb
V:1 treble nm="Piano" snm="Pno."
V:4 treble 
V:2 bass 
V:3 bass 
V:1
"^Allegretto semplice"!p! z8 | z8 | (G2 g2{fg} f2 dB | G2 g2 f4) | (GBdg fgdB | GBdg f4) | %6
w: ||||||
 (G2 d2 ^c2 =c=B | D2 _B2 G4-) | (GA!<(!Be dBd^c | A^c=c=B!<)! D2 _B2 |!mf! (G4)!>(! D2 B2 | %11
w: |||||
 G4 D2 B2 | G8-)!>)! |!p! G4- G2 z2 |:!ff! (G2 g2 !>!^f2 =ec | G2 g2 =e4) | (cd=eg edcG | %17
w: ||||||
 cd=eg) z4 |!pp! (D2 d2 _d2 BG | D2 d2 B4) | (GABd BAGD | GABd) z4 |!ff! (F2 f2 !>!=e2 dB | %23
w: ||||||
 F2 f2 d4) | (Bcdf dcBF | Bcdf) z4 |!pp! (C2 c2 =B2 _AF | C2 c2 _A4) | (FG_Ac AGFC | FG_Ac) z4 | %30
w: |||||||
!ff! (E2 e2 !>!d2 c_A | E2 e2 c4) | (_ABce cBAE | _ABce) z4 | z8 |!pp! z (=e^fa fedA | d=e^fa) z4 | %37
w: |||||||
 z8 | z!pp! (bc'e' c'b_ae | _abc'e') z4 | z8 |!ppp! z (=e'^f'a' f'e'd'a | d'=e'^f'a') z4 | %43
w: ||||||
 z4 (d'=e'^f'a') | z8 |!p!"^tranquillo" (d4- de^cA | d4-!<(! de^cA |"^un poco rit." de^cA decA | %48
w: |||||
 de^cA de!<)!cA) |!f! (!>!d8- |!>(! d4{^cd} =c2 B2)!>)! |"^a tempo"!p! z8 | z8 | (G2 g2{fg} f2 dB | %54
w: ||||||
 G2 g2 f4) | (GBdg fgdB | GBdg f4) | (G2 d2 ^c2 =c=B | D2 _B2 G4-) | (GABe dBd^c | A^c=c=B D2 _B2 | %61
w: |||||||
 G4 D2 B2 | G4 D2 B2 | G8-) | G4- G2 z2 :| z4!f! (=e2 d'2 | b4 =e2 d'2 | b4 =e2!>(! d'2 | %68
w: |||||||
 b4) z4!>)! | z8 | z4!p! (E2 d2 | B4) z4 | z8 |[Q:1/4=90]"^più lento" z4[K:bass]!pp! (D,2 B,2 | %74
w: ||* ritard. e morendo||||
 !fermata!G,8) |] %75
w: |
V:2
 !>!D,8 | !>!D,8 | D,8 | D,8 | D,8 | D,8 | (D,4 E,4 | =E,4 _E,4) | (D,4 E,2 =E,2 | F,2 ^F,2 (G,4) | %10
!ped! D,2 B,2 G,4!ped-up! | D,2 B,2 G,4 | D,2 B,2 G,4-) | G,4- G,2 z2 |:!ped! z4 (G,2 G2 | %15
 !>!^F2 =EC G,2 G2 | =E4) (CDEG | =EDCG,!ped-up! CDEG) |!ped! z4 (D,2 D2 | _D2 B,G, D,2 =D2 | %20
 B,4) (G,A,B,D | B,A,G,D,!ped-up! G,A,B,D) |!ped! z4 (F,2 F2 | !>!=E2 DB, F,2 F2 | D4) (B,CDF | %25
 DCB,F,!ped-up! B,CDF) |!ped! z4 (C,2 C2 | =B,2 _A,F, C,2 C2 | _A,4) (F,G,A,C | %29
 _A,G,F,C,!ped-up! F,G,A,C) |!ped! z4 (E,2 E2 | !>!D2 C_A, E,2 E2 | C4) (_A,B,CE | %33
 CB,_A,E,!ped-up! A,B,CE) | z8 |!ped! z4 z (=E^FA | ^F=EDA,!ped-up! DEFA) | z8 | %38
[K:treble]!ped! z4 z (Bce | cB_AE!ped-up! ABce) | z8 |!ped! z4 z (=e^fa | ^f=e d2 defa) | z8 | %44
 z8!ped-up! | z8 | z8 | z8 | z8 | z8 | z8 |[K:bass] !>!D,8 | !>!D,8 | D,8 | D,8 | D,8 | D,8 | %57
 (D,4 E,4 | =E,4 _E,4) | (D,4 E,2 =E,2 | F,2 ^F,2 (G,4) |!ped! D,2 B,2 G,4!ped-up! | D,2 B,2 G,4 | %63
 D,2 B,2 G,4-) | G,4- G,2 z2 :| z4!ped! [C,G,]4- | [C,G,]8- | [C,G,]8- | [C,G,]8 | z8!ped-up! | %70
 z8!ped! | (_E,2 D2 B,4) | z8!ped-up! | z4!ped! (G,,,4 | D,,2 B,,2 !fermata!G,,4)!ped-up! |] %75
V:3
 (G,,4 A,,4) | (B,,4 A,,4) | (G,,4 A,,4) | (B,,4 A,,4) | (G,,4 A,,4) | (B,,4 A,,4) | (G,,8 | %7
w: |||||||
 G,,8-) | G,,8- | G,,8- | G,,8- | G,,8- | G,,8 | G,,4- G,,2 z2 |: [C,,G,,]8- | [C,,G,,]8- | %16
w: |||||||||
 [C,,G,,]8- | [C,,G,,]8 | [G,,,D,,]8- | [G,,,D,,]8- | [G,,,D,,]8- | [G,,,D,,]8 | [B,,,F,,]8- | %23
w: || una corda||||tre corde|
 [B,,,F,,]8- | [B,,,F,,]8- | [B,,,F,,]8 | [F,,,C,,]8- | [F,,,C,,]8- | [F,,,C,,]8- | [F,,,C,,]8 | %30
w: |||una corda||||
 [_A,,,E,,]8- | [A,,,E,,]8- | [A,,,E,,]8- | [A,,,E,,]8 | x8 | [D,,A,,]8- | [D,,A,,]8 | x8 | %38
w: tre corde|||||una corda|||
[K:treble] [_A,E]8- | [A,E]8 | x8 | [DA]8- | [DA]8 | x8 | x8 | x8 | x8 | x8 | x8 | x8 | x8 | %51
w: |||||||||||||
[K:bass] (G,,4 A,,4) | (B,,4 A,,4) | (G,,4 A,,4) | (B,,4 A,,4) | (G,,4 A,,4) | (B,,4 A,,4) | %57
w: ||||||
 G,,8- | G,,8 | G,,8- | G,,8- | G,,8- | G,,8- | G,,8- | G,,4- G,,2 z2 :| x8 | x8 | x8 | x8 | x8 | %70
w: |||||||||||||
 z4 [C,,G,,]4- | [C,,G,,]8 | x8 | x8 | x8 |] %75
w: |||||
V:4
 x8 | x8 | x8 | x8 | x8 | x8 | x8 | x8 | x8 | x8 | x8 | x8 | x8 | x8 |: x8 | x8 | x8 | x8 | x8 | %19
 x8 | x8 | x8 | x8 | x8 | x8 | x8 | x8 | x8 | x8 | x8 | x8 | x8 | x8 | x8 | x8 | x8 | x8 | x8 | %38
 x8 | x8 | x8 | x8 | x8 | x8 | x8 | x8 | x8 | x8 | x8 | x8 | x8 | x8 | x8 | x8 | x8 | x8 | x8 | %57
 x8 | x8 | x8 | x8 | x8 | x8 | x8 | x8 :| x8 | (=E2 d2 B4 | E2 d2 B4 | =E2 d2 B4) | x8 | x8 | x8 | %72
 x8 | x4[K:bass] x4 | x8 |] %75

